X: 33181
T: Private Ass And Cart
R: reel
M: 4/4
K: Dmajor
|:~F3 A GE E2|FDDF ABAG|F3 A GE E2|ABGE FD D2:|
|:(3Bcd ec d2 ed|cA GE ~A3 B|1 (3Bcd d2 ed|cA GE ED D2:|2 ~c3 d e2 ed|cA GE FD D2||

